icons/road-map-line.svg

<svg viewBox="0 0 24 24" fill="currentColor" xmlns="http://www.w3.org/2000/svg"><path d="M4 6.14286V18.9669L9.06476 16.7963L15.0648 19.7963L20 17.6812V4.85714L21.303 4.2987C21.5569 4.18992 21.8508 4.30749 21.9596 4.56131C21.9862 4.62355 22 4.69056 22 4.75827V19L15 22L9 19L2.69696 21.7013C2.44314 21.8101 2.14921 21.6925 2.04043 21.4387C2.01375 21.3765 2 21.3094 2 21.2417V7L4 6.14286ZM16.2426 11.2426L12 15.4853L7.75736 11.2426C5.41421 8.89949 5.41421 5.10051 7.75736 2.75736C10.1005 0.414214 13.8995 0.414214 16.2426 2.75736C18.5858 5.10051 18.5858 8.89949 16.2426 11.2426ZM12 12.6569L14.8284 9.82843C16.3905 8.26633 16.3905 5.73367 14.8284 4.17157C13.2663 2.60948 10.7337 2.60948 9.17157 4.17157C7.60948 5.73367 7.60948 8.26633 9.17157 9.82843L12 12.6569Z"/></svg>

<svg xmlns="http://www.w3.org/2000/svg" viewBox="0 0 24 24">
    <g>
        <path fill="none" d="M0 0h24v24H0z"/>
        <path d="M4 6.143v12.824l5.065-2.17 6 3L20 17.68V4.857l1.303-.558a.5.5 0 0 1 .697.46V19l-7 3-6-3-6.303 2.701a.5.5 0 0 1-.697-.46V7l2-.857zm12.243 5.1L12 15.485l-4.243-4.242a6 6 0 1 1 8.486 0zM12 12.657l2.828-2.829a4 4 0 1 0-5.656 0L12 12.657z"/>
    </g>
</svg>
